X: 20
T: MAGE ON A CREE
B: "FIFTY OLD ENGLISH FOLK DANCE AIRS", Edgar H. Hunt ed., Schott & Co. Ltd. pub., London 1939
Z: 2004-2014 John Chambers <jc:trillian.mit.edu>
M: 6/8
L: 1/8
K: Gm
[|\
B>cd/e/ f2c | (A2F) c2A | B>cd d>cd | (B>A)G d2G |\
B>cd/e/ f2c | (A2F) c2A | B>cd e>fg | (^f>e)f g2G |]

%%sep 1 1 500
%%sep 1 1 500
